Adwaita++/actions/16/folder-copy.svg

<svg height="16" width="16" xmlns="http://www.w3.org/2000/svg">
  <g fill="#474747">
    <path d="m1.75 1c-.4155 0-.75.3345-.75.75v8.5c0 .415.3345.75.75.75h8.5c.415 0 .75-.335.75-.75v-6.5c0-.4155-.335-.75-.75-.75h-3.25l-2-2z"/>
    <path d="m12 7v4.25c0 .415-.335.75-.75.75h-6.25v2.25c0 .415.3345.75.75.75h8.5c.415 0 .75-.335.75-.75v-6.5c0-.4155-.335-.75-.75-.75z"/>
  </g>
</svg>

<svg xmlns="http://www.w3.org/2000/svg" width="16" height="16" version="1.1">
 <defs>
  <style id="current-color-scheme" type="text/css">
   .ColorScheme-Text { color:#474747; } .ColorScheme-Highlight { color:#4285f4; }
  </style>
 </defs>
 <path style="fill:currentColor" class="ColorScheme-Text" d="M 1.75,1 C 1.3345,1 1,1.3345 1,1.75 V 10.25 C 1,10.665 1.3345,11 1.75,11 H 10.25 C 10.665,11 11,10.665 11,10.25 V 3.75 C 11,3.3345 10.665,3 10.25,3 H 7 L 5,1 Z"/>
 <path style="fill:currentColor" class="ColorScheme-Text" d="M 12 7 L 12 11.25 C 12 11.665 11.665 12 11.25 12 L 5 12 L 5 14.25 C 5 14.665 5.3345 15 5.75 15 L 14.25 15 C 14.665 15 15 14.665 15 14.25 L 15 7.75 C 15 7.3345 14.665 7 14.25 7 L 12 7 z"/>
</svg>
